X: 12123
T: Evening Session, The
R: jig
M: 6/8
K: Dmajor
|:DFA DFA|dfd e2d|dfd e2d|~B3 Bcd|
DFA DFA|dfd e2d|dfd e2d|1 B2c d3:|2 B2c d2e||
|:fed ~B3|fed ~B3|ecA BAG|FAF EFG|
DFA DFA|dfd e2d|dfd e2d|1 B2c d2e:|2 B2c d3||

